!!!OTL: Der Maler der Blumen
!!!id: P0575
**kern
*clefG2
*k[b-]
*F:
{8f
=1
4a
8g
8a
8a
8g
=2
4a
8b-
4cc}
=3
{8cc
=4
8dd
8dd
8cc
8dd
8ff
16ff
16ee
=5
4.dd
4cc}
=6
{8cc
=7
8.dd
16dd
16dd
16ee
8ff
8ee
8dd
=8
8cc
8dd
8cc
4a}
=9
{8f
=10
8.g
16cc
8cc
8cc
8b-
8a
=11
4.g
4f}
==
*-
!!!minrhy: 16
!!!meters: 6/8 ]  ZZ[4
!!!cut1: Der Maler der Blumen
!!!cut2: ), S. 19
!! 4-14), S. 19]
!!!reg: Lothringen
!!!trd: PINCK, Louis: Verklingende Weisen Bd 4, Kassel 1939
!!!rhy1: X_  X__X_X_X_X_  X__X_X__
!!!rhy2: X_  X_X_X_X_X_XX  X__.X__
!!!key: P0575  16  F 6/8 ]  ZZ[4
!!!mod: HEPTATONIK IONISCH]  AMBITUS[8
!!!kad: 5531
!!!akz: 3335_6665_6+153_2521_
!!!fot: 'a__as"b__c__
!!!for: 'a__b__c__d__
!!!fok: '/__^__^d_^__
!! PHRAS[AUFTAKTIG]
!!!fkt: geistliches, religiöses Lied
!! LOTH VKL
!! PR[33] 2K[5] 2G[10] 3K[3] 3G[0] 4A[5] 4Ü[0] 5A[3] 6K[0] 6G[3]
!! 7K[0] 7G[0] 8A[0] MEHR[0] SI[28] ABS[40] SR[15] SP[13]
!! ST[0] 2k[5] 2g[23] 3k[8] 3g[0] 4d[5] 4ü[0] 5d[0] 6k[0] 6g[0]
!! 7k[0] 7g[0] 8d[0] mehr[0] si[40] dm[-12] sr[28] sp[13]
!! 1F[2] 2F[61] 3F[22] 4F[2] LF[0] 2P[2] 3P[10] 4P[0] TRI[0] DF[6] AB[41]
!! TF[0] U3K[0] U3[0] U4[0] U4Ü[0] U5[0] U6K[0] U6[0] U7K[0] U7[0]
!! N1[22] N2K[0] N2[12] N3K[5] N3[0] N4[15] N4Ü[0] N5[32] N6K[0] N6[10]
!!!n7k: 2] N7[0] O1[2] O2K[0] O2[0] O3K[0] O3[0] HÖ[0
